public/icons/clear-night.svg

<?xml version="1.0" ?>
<svg xmlns="http://www.w3.org/2000/svg" width="100" height="100" viewBox="0 0 100 100">
  <path d="M50,61.998c-6.627,0 -11.999,-5.372 -11.999,-11.998c0,-6.627 5.372,-11.999 11.999,-11.999c0.755,0 1.491,0.078 2.207,0.212c-0.132,0.576 -0.208,1.173 -0.208,1.788c0,4.418 3.582,7.999 8,7.999c0.615,0 1.212,-0.076 1.788,-0.208c0.133,0.717 0.211,1.452 0.211,2.208C61.998,56.626 56.626,61.998 50,61.998zM48.212,42.208c-3.556,0.813 -6.211,3.989 -6.211,7.792c0,4.417 3.581,7.999 7.999,7.999c3.802,0 6.978,-2.655 7.791,-6.211C52.937,50.884 49.115,47.062 48.212,42.208z" fill="#FF000000"/>
</svg>

<svg
    xmlns="http://www.w3.org/2000/svg"
    viewBox="0 0 100 100"
    id="vector">
    <path
        id="path_1"
        d="M 50 61.998 C 43.373 61.998 38.001 56.626 38.001 50 C 38.001 43.373 43.373 38.001 50 38.001 C 50.755 38.001 51.491 38.079 52.207 38.213 C 52.075 38.789 51.999 39.386 51.999 40.001 C 51.999 44.419 55.581 48 59.999 48 C 60.614 48 61.211 47.924 61.787 47.792 C 61.92 48.509 61.998 49.244 61.998 50 C 61.998 56.626 56.626 61.998 50 61.998 Z M 48.212 42.208 C 44.656 43.021 42.001 46.197 42.001 50 C 42.001 54.417 45.582 57.999 50 57.999 C 53.802 57.999 56.978 55.344 57.791 51.788 C 52.937 50.884 49.115 47.062 48.212 42.208 Z"
        fill="#000000"
        fill-rule="evenodd"/>
</svg>
